resources/payment_methods/card/icon.svg

<?xml version="1.0" encoding="UTF-8"?>
<svg enable-background="new 0 0 128 128" version="1.1" viewBox="0 0 128 128" xml:space="preserve" xmlns="http://www.w3.org/2000/svg" xmlns:xlink="http://www.w3.org/1999/xlink"><style type="text/css">
	.st0{opacity:0.2;fill:#FFFFFF;}
	.st1{fill:#FFFFFF;}
	.st2{fill:none;stroke:#242C88;stroke-width:2;stroke-linecap:round;stroke-linejoin:round;stroke-miterlimit:10;}
	.st3{fill:#5E61A3;}
	.st4{opacity:0.5;fill:#242C88;}
	.st5{fill:#39C89A;}
	.st6{fill:#CAEAFB;}
	.st7{fill:#589FFF;}
	.st8{fill:#FF5751;}
	.st9{fill:#BC8D66;}
	.st10{opacity:0.7;fill:#FFFFFF;}
	.st11{fill:#F1C92A;}
	.st12{opacity:0.4;fill:none;stroke:#FFFFFF;stroke-width:2;stroke-linecap:round;stroke-linejoin:round;stroke-miterlimit:10;}
	.st13{fill:#F3877E;}
	.st14{fill:#83D689;}
	.st15{opacity:0.4;fill:#242C88;}
	.st16{opacity:0.2;fill:#242C88;}
	
		.st17{fill:none;stroke:#FFFFFF;stroke-width:3;stroke-linecap:round;stroke-linejoin:round;stroke-miterlimit:10;stroke-dasharray:0.1,6;}
	.st18{fill:#FFC408;}
	
		.st19{opacity:0.4;fill:none;stroke:#FFFFFF;stroke-width:3;stroke-linecap:round;stroke-linejoin:round;stroke-miterlimit:10;stroke-dasharray:0.1,6;}
	.st20{fill:none;stroke:#CAEAFB;stroke-width:12;stroke-linecap:round;stroke-miterlimit:10;}
	.st21{fill:none;stroke:#CAEAFB;stroke-width:7;stroke-linecap:round;stroke-miterlimit:10;}
	.st22{opacity:0.4;fill:none;stroke:#242C88;stroke-width:2;stroke-linecap:round;stroke-linejoin:round;stroke-miterlimit:10;}
	.st23{opacity:0.5;}
	.st24{fill:#242C88;}
	
		.st25{fill:none;stroke:#242C88;stroke-width:3;stroke-linecap:round;stroke-linejoin:round;stroke-miterlimit:10;stroke-dasharray:0.1,6;}
	.st26{opacity:0.5;fill:#FFFFFF;}
	.st27{fill:none;stroke:#FFFFFF;stroke-width:3;stroke-linecap:round;stroke-linejoin:round;stroke-miterlimit:10;}
	.st28{fill:none;stroke:#FFFFFF;stroke-width:2;stroke-linecap:round;stroke-linejoin:round;stroke-miterlimit:10;}
	.st29{fill:#E5BD9E;}
	.st30{fill:#A06D47;}
	
		.st31{opacity:0.3;fill:none;stroke:#FFFFFF;stroke-width:3;stroke-linecap:round;stroke-linejoin:round;stroke-miterlimit:10;stroke-dasharray:0.1,6;}
	.st32{opacity:0.1;fill:#242C88;}
	.st33{opacity:0.5;fill:#FF5751;}
	.st34{opacity:0.2;fill:none;stroke:#242C88;stroke-width:2;stroke-linecap:round;stroke-linejoin:round;stroke-miterlimit:10;}
	.st35{opacity:0.3;clip-path:url(#a);}
	
		.st36{fill:none;stroke:#FFFFFF;stroke-width:3;stroke-linecap:round;stroke-linejoin:round;stroke-miterlimit:10;stroke-dasharray:0,6;}
	
		.st37{opacity:0.3;fill:none;stroke:#FFFFFF;stroke-width:3;stroke-linecap:round;stroke-linejoin:round;stroke-miterlimit:10;stroke-dasharray:0,6;}
	.st38{clip-path:url(#SVGID_4_);}
	.st39{opacity:0.2;fill:none;stroke:#242C88;stroke-width:9;stroke-linecap:round;stroke-linejoin:round;stroke-miterlimit:10;}
	.st40{opacity:0.3;}
	.st41{opacity:0.4;fill:#FFFFFF;}
	.st42{opacity:0.5;fill:#CAEAFB;}
	.st43{opacity:0.6;fill:#242C88;}
	.st44{opacity:0.5;fill:none;stroke:#242C88;stroke-width:2;stroke-linecap:round;stroke-linejoin:round;stroke-miterlimit:10;}
	.st45{opacity:0.3;fill:#242C88;}
	.st46{opacity:0.2;}
	
		.st47{clip-path:url(#SVGID_6_);fill:none;stroke:#242C88;stroke-width:2;stroke-linecap:round;stroke-linejoin:round;stroke-miterlimit:10;}
	.st48{opacity:0.2;fill:none;stroke:#FFFFFF;stroke-width:8;stroke-linecap:round;stroke-linejoin:round;stroke-miterlimit:10;}
	.st49{clip-path:url(#SVGID_8_);fill:#FFFFFF;}
	
		.st50{clip-path:url(#SVGID_8_);fill:none;stroke:#242C88;stroke-width:2;stroke-linecap:round;stroke-linejoin:round;stroke-miterlimit:10;}
	.st51{opacity:0.2;clip-path:url(#SVGID_8_);fill:#242C88;}
	
		.st52{opacity:0.2;clip-path:url(#SVGID_8_);fill:none;stroke:#242C88;stroke-width:2;stroke-linecap:round;stroke-linejoin:round;stroke-miterlimit:10;}
	.st53{fill:none;stroke:#242C88;stroke-width:1.848;stroke-linecap:round;stroke-linejoin:round;stroke-miterlimit:10;}
	.st54{opacity:0.4;fill:none;stroke:#FFFFFF;stroke-width:7;stroke-linecap:round;stroke-linejoin:round;stroke-miterlimit:10;}
	.st55{opacity:0.2;fill:none;stroke:#242C88;stroke-width:7;stroke-linecap:round;stroke-linejoin:round;stroke-miterlimit:10;}
	.st56{opacity:7.000000e-02;fill:#242C88;}
	.st57{fill:none;stroke:#FFFFFF;stroke-width:4;stroke-linecap:round;stroke-linejoin:round;stroke-miterlimit:10;}
	.st58{opacity:0.4;fill:none;stroke:#FFFFFF;stroke-width:8;stroke-linecap:round;stroke-linejoin:round;stroke-miterlimit:10;}
	.st59{opacity:0.2;fill:none;stroke:#242C88;stroke-width:8;stroke-linecap:round;stroke-linejoin:round;stroke-miterlimit:10;}
	.st60{fill:none;stroke:#FF5751;stroke-width:4;stroke-linecap:round;stroke-linejoin:round;stroke-miterlimit:10;}
	.st61{fill:none;stroke:#242C88;stroke-width:4;stroke-linecap:round;stroke-linejoin:round;stroke-miterlimit:10;}
</style><path class="st7" d="m88.4 16h-74.8c-2.5 0-4.6 2.1-4.6 4.6v48.8c0 2.6 2.1 4.6 4.6 4.6h74.8c2.6 0 4.6-2.1 4.6-4.6v-48.8c0-2.5-2.1-4.6-4.6-4.6z"/><rect class="st6" x="16" y="40" width="69" height="15"/><rect class="st3" x="9" y="28" width="84" height="15"/><path class="st2" d="m88.4 16h-74.8c-2.5 0-4.6 2.1-4.6 4.6v48.8c0 2.6 2.1 4.6 4.6 4.6h74.8c2.6 0 4.6-2.1 4.6-4.6v-48.8c0-2.5-2.1-4.6-4.6-4.6z"/><line class="st44" x1="17" x2="41" y1="61" y2="61"/><line class="st44" x1="17" x2="41" y1="65" y2="65"/><path class="st45" d="M40.6,50c-5.3,0-9.6,4.3-9.6,9.6V74h57.4c2.6,0,4.6-2.1,4.6-4.6V50H40.6z"/><path class="st8" d="m115.4 55h-74.8c-2.6 0-4.6 2.1-4.6 4.6v48.8c0 2.6 2.1 4.6 4.6 4.6h74.8c2.6 0 4.6-2.1 4.6-4.6v-48.8c0-2.5-2.1-4.6-4.6-4.6z"/><path class="st13" d="m111.7 84c2.9 0 5.7-0.4 8.3-1.2v-13.5c-2.4 1.4-5.3 2.2-8.3 2.2-9.2 0-16.6-7.4-16.6-16.6h-12.4c0 16.1 13 29.1 29 29.1z"/><path class="st2" d="m115.4 55h-74.8c-2.6 0-4.6 2.1-4.6 4.6v48.8c0 2.6 2.1 4.6 4.6 4.6h74.8c2.6 0 4.6-2.1 4.6-4.6v-48.8c0-2.5-2.1-4.6-4.6-4.6z"/><path class="st18" d="m55.6 90h-10.2c-1.3 0-2.4-1.1-2.4-2.4v-7.3c0-1.3 1.1-2.4 2.4-2.4h10.3c1.3 0 2.4 1.1 2.4 2.4v7.3c-0.1 1.3-1.2 2.4-2.5 2.4z"/><path class="st2" d="m55.6 90h-10.2c-1.3 0-2.4-1.1-2.4-2.4v-7.3c0-1.3 1.1-2.4 2.4-2.4h10.3c1.3 0 2.4 1.1 2.4 2.4v7.3c-0.1 1.3-1.2 2.4-2.5 2.4z"/><line class="st2" x1="44" x2="57" y1="95" y2="95"/><line class="st28" x1="44" x2="64" y1="99" y2="99"/><line class="st28" x1="44" x2="53" y1="104" y2="104"/><line class="st28" x1="69" x2="76" y1="99" y2="99"/><line class="st2" x1="61" x2="75" y1="95" y2="95"/><line class="st2" x1="80" x2="92" y1="95" y2="95"/><line class="st2" x1="97" x2="111" y1="95" y2="95"/><g class="st46"><defs><path id="b" class="st46" d="m55.6 90h-10.2c-1.3 0-2.4-1.1-2.4-2.4v-7.3c0-1.3 1.1-2.4 2.4-2.4h10.3c1.3 0 2.4 1.1 2.4 2.4v7.3c-0.1 1.3-1.2 2.4-2.5 2.4z"/></defs><clipPath id="a"><use xlink:href="#b"/></clipPath><rect x="48" y="77" width="5" height="14" clip-path="url(#a)" fill="none" stroke="#242C88" stroke-linecap="round" stroke-linejoin="round" stroke-miterlimit="10" stroke-width="2"/><line x1="53" x2="58" y1="84" y2="84" clip-path="url(#a)" fill="none" stroke="#242C88" stroke-linecap="round" stroke-linejoin="round" stroke-miterlimit="10" stroke-width="2"/><line x1="43" x2="48" y1="84" y2="84" clip-path="url(#a)" fill="none" stroke="#242C88" stroke-linecap="round" stroke-linejoin="round" stroke-miterlimit="10" stroke-width="2"/></g><circle class="st1" cx="106" cy="70" r="5"/><circle class="st18" cx="99" cy="70" r="5"/><path class="st16" d="m101 70c0 1.4 0.6 2.7 1.5 3.6 0.9-0.9 1.5-2.2 1.5-3.6s-0.6-2.7-1.5-3.6c-0.9 0.9-1.5 2.2-1.5 3.6z"/><path class="st2" d="m106 65c-1.4 0-2.6 0.5-3.5 1.4-0.9-0.9-2.1-1.4-3.5-1.4-2.8 0-5 2.2-5 5s2.2 5 5 5c1.4 0 2.6-0.5 3.5-1.4 0.9 0.9 2.1 1.4 3.5 1.4 2.8 0 5-2.2 5-5s-2.2-5-5-5z"/></svg>

<?xml version="1.0" ?><svg id="Layer_1" style="enable-background:new 0 0 128 128;" version="1.1" viewBox="0 0 128 128" xml:space="preserve" xmlns="http://www.w3.org/2000/svg" xmlns:xlink="http://www.w3.org/1999/xlink"><style type="text/css">
	.st0{opacity:0.2;fill:#FFFFFF;}
	.st1{fill:#FFFFFF;}
	.st2{fill:none;stroke:#242C88;stroke-width:2;stroke-linecap:round;stroke-linejoin:round;stroke-miterlimit:10;}
	.st3{fill:#5E61A3;}
	.st4{opacity:0.5;fill:#242C88;}
	.st5{fill:#39C89A;}
	.st6{fill:#CAEAFB;}
	.st7{fill:#589FFF;}
	.st8{fill:#FF5751;}
	.st9{fill:#BC8D66;}
	.st10{opacity:0.7;fill:#FFFFFF;}
	.st11{fill:#F1C92A;}
	.st12{opacity:0.4;fill:none;stroke:#FFFFFF;stroke-width:2;stroke-linecap:round;stroke-linejoin:round;stroke-miterlimit:10;}
	.st13{fill:#F3877E;}
	.st14{fill:#83D689;}
	.st15{opacity:0.4;fill:#242C88;}
	.st16{opacity:0.2;fill:#242C88;}
	
		.st17{fill:none;stroke:#FFFFFF;stroke-width:3;stroke-linecap:round;stroke-linejoin:round;stroke-miterlimit:10;stroke-dasharray:0.1,6;}
	.st18{fill:#FFC408;}
	
		.st19{opacity:0.4;fill:none;stroke:#FFFFFF;stroke-width:3;stroke-linecap:round;stroke-linejoin:round;stroke-miterlimit:10;stroke-dasharray:0.1,6;}
	.st20{fill:none;stroke:#CAEAFB;stroke-width:12;stroke-linecap:round;stroke-miterlimit:10;}
	.st21{fill:none;stroke:#CAEAFB;stroke-width:7;stroke-linecap:round;stroke-miterlimit:10;}
	.st22{opacity:0.4;fill:none;stroke:#242C88;stroke-width:2;stroke-linecap:round;stroke-linejoin:round;stroke-miterlimit:10;}
	.st23{opacity:0.5;}
	.st24{fill:#242C88;}
	
		.st25{fill:none;stroke:#242C88;stroke-width:3;stroke-linecap:round;stroke-linejoin:round;stroke-miterlimit:10;stroke-dasharray:0.1,6;}
	.st26{opacity:0.5;fill:#FFFFFF;}
	.st27{fill:none;stroke:#FFFFFF;stroke-width:3;stroke-linecap:round;stroke-linejoin:round;stroke-miterlimit:10;}
	.st28{fill:none;stroke:#FFFFFF;stroke-width:2;stroke-linecap:round;stroke-linejoin:round;stroke-miterlimit:10;}
	.st29{fill:#E5BD9E;}
	.st30{fill:#A06D47;}
	
		.st31{opacity:0.3;fill:none;stroke:#FFFFFF;stroke-width:3;stroke-linecap:round;stroke-linejoin:round;stroke-miterlimit:10;stroke-dasharray:0.1,6;}
	.st32{opacity:0.1;fill:#242C88;}
	.st33{opacity:0.5;fill:#FF5751;}
	.st34{opacity:0.2;fill:none;stroke:#242C88;stroke-width:2;stroke-linecap:round;stroke-linejoin:round;stroke-miterlimit:10;}
	.st35{opacity:0.3;clip-path:url(#SVGID_2_);}
	
		.st36{fill:none;stroke:#FFFFFF;stroke-width:3;stroke-linecap:round;stroke-linejoin:round;stroke-miterlimit:10;stroke-dasharray:0,6;}
	
		.st37{opacity:0.3;fill:none;stroke:#FFFFFF;stroke-width:3;stroke-linecap:round;stroke-linejoin:round;stroke-miterlimit:10;stroke-dasharray:0,6;}
	.st38{clip-path:url(#SVGID_4_);}
	.st39{opacity:0.2;fill:none;stroke:#242C88;stroke-width:9;stroke-linecap:round;stroke-linejoin:round;stroke-miterlimit:10;}
	.st40{opacity:0.3;}
	.st41{opacity:0.4;fill:#FFFFFF;}
	.st42{opacity:0.5;fill:#CAEAFB;}
	.st43{opacity:0.6;fill:#242C88;}
	.st44{opacity:0.5;fill:none;stroke:#242C88;stroke-width:2;stroke-linecap:round;stroke-linejoin:round;stroke-miterlimit:10;}
	.st45{opacity:0.3;fill:#242C88;}
	.st46{opacity:0.2;}
	
		.st47{clip-path:url(#SVGID_6_);fill:none;stroke:#242C88;stroke-width:2;stroke-linecap:round;stroke-linejoin:round;stroke-miterlimit:10;}
	.st48{opacity:0.2;fill:none;stroke:#FFFFFF;stroke-width:8;stroke-linecap:round;stroke-linejoin:round;stroke-miterlimit:10;}
	.st49{clip-path:url(#SVGID_8_);fill:#FFFFFF;}
	
		.st50{clip-path:url(#SVGID_8_);fill:none;stroke:#242C88;stroke-width:2;stroke-linecap:round;stroke-linejoin:round;stroke-miterlimit:10;}
	.st51{opacity:0.2;clip-path:url(#SVGID_8_);fill:#242C88;}
	
		.st52{opacity:0.2;clip-path:url(#SVGID_8_);fill:none;stroke:#242C88;stroke-width:2;stroke-linecap:round;stroke-linejoin:round;stroke-miterlimit:10;}
	.st53{fill:none;stroke:#242C88;stroke-width:1.848;stroke-linecap:round;stroke-linejoin:round;stroke-miterlimit:10;}
	.st54{opacity:0.4;fill:none;stroke:#FFFFFF;stroke-width:7;stroke-linecap:round;stroke-linejoin:round;stroke-miterlimit:10;}
	.st55{opacity:0.2;fill:none;stroke:#242C88;stroke-width:7;stroke-linecap:round;stroke-linejoin:round;stroke-miterlimit:10;}
	.st56{opacity:7.000000e-02;fill:#242C88;}
	.st57{fill:none;stroke:#FFFFFF;stroke-width:4;stroke-linecap:round;stroke-linejoin:round;stroke-miterlimit:10;}
	.st58{opacity:0.4;fill:none;stroke:#FFFFFF;stroke-width:8;stroke-linecap:round;stroke-linejoin:round;stroke-miterlimit:10;}
	.st59{opacity:0.2;fill:none;stroke:#242C88;stroke-width:8;stroke-linecap:round;stroke-linejoin:round;stroke-miterlimit:10;}
	.st60{fill:none;stroke:#FF5751;stroke-width:4;stroke-linecap:round;stroke-linejoin:round;stroke-miterlimit:10;}
	.st61{fill:none;stroke:#242C88;stroke-width:4;stroke-linecap:round;stroke-linejoin:round;stroke-miterlimit:10;}
</style><path class="st7" d="M88.4,16H13.6C11.1,16,9,18.1,9,20.6v48.8c0,2.6,2.1,4.6,4.6,4.6h74.8c2.6,0,4.6-2.1,4.6-4.6V20.6  C93,18.1,90.9,16,88.4,16z"/><rect class="st6" height="15" width="69" x="16" y="40"/><rect class="st3" height="15" width="84" x="9" y="28"/><path class="st2" d="M88.4,16H13.6C11.1,16,9,18.1,9,20.6v48.8c0,2.6,2.1,4.6,4.6,4.6h74.8c2.6,0,4.6-2.1,4.6-4.6V20.6  C93,18.1,90.9,16,88.4,16z"/><line class="st44" x1="17" x2="41" y1="61" y2="61"/><line class="st44" x1="17" x2="41" y1="65" y2="65"/><path class="st45" d="M40.6,50c-5.3,0-9.6,4.3-9.6,9.6V74h57.4c2.6,0,4.6-2.1,4.6-4.6V50H40.6z"/><path class="st8" d="M115.4,55H40.6c-2.6,0-4.6,2.1-4.6,4.6v48.8c0,2.6,2.1,4.6,4.6,4.6h74.8c2.6,0,4.6-2.1,4.6-4.6V59.6  C120,57.1,117.9,55,115.4,55z"/><path class="st13" d="M111.7,84c2.9,0,5.7-0.4,8.3-1.2V69.3c-2.4,1.4-5.3,2.2-8.3,2.2c-9.2,0-16.6-7.4-16.6-16.6H82.7  C82.7,71,95.7,84,111.7,84z"/><path class="st2" d="M115.4,55H40.6c-2.6,0-4.6,2.1-4.6,4.6v48.8c0,2.6,2.1,4.6,4.6,4.6h74.8c2.6,0,4.6-2.1,4.6-4.6V59.6  C120,57.1,117.9,55,115.4,55z"/><path class="st18" d="M55.6,90H45.4c-1.3,0-2.4-1.1-2.4-2.4v-7.3c0-1.3,1.1-2.4,2.4-2.4h10.3c1.3,0,2.4,1.1,2.4,2.4v7.3  C58,88.9,56.9,90,55.6,90z"/><path class="st2" d="M55.6,90H45.4c-1.3,0-2.4-1.1-2.4-2.4v-7.3c0-1.3,1.1-2.4,2.4-2.4h10.3c1.3,0,2.4,1.1,2.4,2.4v7.3  C58,88.9,56.9,90,55.6,90z"/><line class="st2" x1="44" x2="57" y1="95" y2="95"/><line class="st28" x1="44" x2="64" y1="99" y2="99"/><line class="st28" x1="44" x2="53" y1="104" y2="104"/><line class="st28" x1="69" x2="76" y1="99" y2="99"/><line class="st2" x1="61" x2="75" y1="95" y2="95"/><line class="st2" x1="80" x2="92" y1="95" y2="95"/><line class="st2" x1="97" x2="111" y1="95" y2="95"/><g class="st46"><defs><path class="st46" d="M55.6,90H45.4c-1.3,0-2.4-1.1-2.4-2.4v-7.3c0-1.3,1.1-2.4,2.4-2.4h10.3c1.3,0,2.4,1.1,2.4,2.4    v7.3C58,88.9,56.9,90,55.6,90z" id="SVGID_5_"/></defs><clipPath id="SVGID_2_"><use style="overflow:visible;" xlink:href="#SVGID_5_"/></clipPath><rect height="14" style="clip-path:url(#SVGID_2_);fill:none;stroke:#242C88;stroke-width:2;stroke-linecap:round;stroke-linejoin:round;stroke-miterlimit:10;" width="5" x="48" y="77"/><line style="clip-path:url(#SVGID_2_);fill:none;stroke:#242C88;stroke-width:2;stroke-linecap:round;stroke-linejoin:round;stroke-miterlimit:10;" x1="53" x2="58" y1="84" y2="84"/><line style="clip-path:url(#SVGID_2_);fill:none;stroke:#242C88;stroke-width:2;stroke-linecap:round;stroke-linejoin:round;stroke-miterlimit:10;" x1="43" x2="48" y1="84" y2="84"/></g><circle class="st1" cx="106" cy="70" r="5"/><circle class="st18" cx="99" cy="70" r="5"/><path class="st16" d="M101,70c0,1.4,0.6,2.7,1.5,3.6c0.9-0.9,1.5-2.2,1.5-3.6s-0.6-2.7-1.5-3.6C101.6,67.3,101,68.6,101,70z"/><path class="st2" d="M106,65c-1.4,0-2.6,0.5-3.5,1.4c-0.9-0.9-2.1-1.4-3.5-1.4c-2.8,0-5,2.2-5,5s2.2,5,5,5c1.4,0,2.6-0.5,3.5-1.4  c0.9,0.9,2.1,1.4,3.5,1.4c2.8,0,5-2.2,5-5S108.8,65,106,65z"/></svg>
